X: 7086
T: Christina's Dream
R: jig
M: 6/8
K: Amajor
|:Ace|a2 a aec|ABA Ace|a2 a a2 a|bBB B2 e|
gfe gfe|gfe fed|efe dcB|cBA:|
|:a3|ECA, ECA,|ECA, ECA,|AFD AFD|AFD AFD|
EGB EGB|EGB EGB|Ace Ace|aec A:|

